img/logo-white-large.svg

<svg width="68" height="24" viewBox="0 0 68 24" fill="none" xmlns="http://www.w3.org/2000/svg">
<path d="M35.3319 17H28.6339V15.385L32.3399 10.676H28.6339V8.789H35.2639V10.353L31.5069 15.113H35.3319V17ZM38.1967 7.905C37.8454 7.905 37.5394 7.78033 37.2787 7.531C37.0294 7.27033 36.9047 6.96433 36.9047 6.613C36.9047 6.26167 37.0294 5.96133 37.2787 5.712C37.5394 5.46267 37.8454 5.338 38.1967 5.338C38.5594 5.338 38.8654 5.46267 39.1147 5.712C39.364 5.96133 39.4887 6.26167 39.4887 6.613C39.4887 6.96433 39.364 7.27033 39.1147 7.531C38.8654 7.78033 38.5594 7.905 38.1967 7.905ZM39.2847 17H37.1257V8.789H39.2847V17ZM49.4495 17H46.7465L44.5705 13.838L43.5845 14.892V17H41.4255V5.661H43.5845V12.444L46.6955 8.789H49.3475L46.1005 12.512L49.4495 17ZM54.2825 17.204C53.0132 17.204 51.9649 16.8073 51.1375 16.014C50.3102 15.2207 49.8965 14.178 49.8965 12.886C49.8965 11.6733 50.2932 10.6533 51.0865 9.826C51.8912 8.99867 52.9112 8.585 54.1465 8.585C55.3705 8.585 56.3622 9.00433 57.1215 9.843C57.8809 10.6703 58.2605 11.7583 58.2605 13.107V13.583H52.1575C52.2255 14.127 52.4692 14.5803 52.8885 14.943C53.3079 15.3057 53.8519 15.487 54.5205 15.487C54.8832 15.487 55.2742 15.4133 55.6935 15.266C56.1242 15.1187 56.4642 14.9203 56.7135 14.671L57.6655 16.065C56.8382 16.8243 55.7105 17.204 54.2825 17.204ZM56.1695 12.121C56.1355 11.6563 55.9485 11.237 55.6085 10.863C55.2799 10.489 54.7925 10.302 54.1465 10.302C53.5345 10.302 53.0585 10.489 52.7185 10.863C52.3785 11.2257 52.1802 11.645 52.1235 12.121H56.1695ZM67.317 17H64.903L63.033 14.229L61.146 17H58.749L61.656 12.784L58.919 8.789H61.333L63.033 11.322L64.716 8.789H67.13L64.376 12.784L67.317 17Z" fill="white"/>
<path d="M0.905023 16.2529C3.12476 13.2238 5.79799 10.6655 8.78434 8.61314C8.8501 8.56795 8.81055 8.46487 8.73159 8.47639C7.64542 8.635 6.57152 8.86065 5.51655 9.15163C5.20029 9.23886 4.92834 8.89687 5.09238 8.61275L6.01957 7.00681C6.27388 6.56634 6.70215 6.25108 7.20216 6.15791C9.41365 5.7458 11.6803 5.58901 13.9544 5.69995C14.9765 5.74981 16.0001 5.85376 17.0208 6.01292C17.6297 6.10786 17.6706 6.94921 17.0927 7.16312C16.2051 7.49166 15.3328 7.85976 14.4787 8.26668C10.749 10.0437 7.36697 12.5612 4.57862 15.7578L2.16559 18.7837L2.1269 18.8226C1.60102 18.063 1.16054 17.2398 0.819336 16.3669L0.905023 16.2529Z" fill="white"/>
<path d="M23.8382 10.6065C23.7858 10.6153 23.7334 10.6242 23.6811 10.6333C20.4223 11.1985 17.2977 12.3526 14.4826 14.0525C14.4201 14.0902 14.4428 14.1857 14.5154 14.1923C15.8727 14.3165 17.2293 14.5767 18.5649 14.9784C18.8219 15.0557 18.8981 15.3786 18.7075 15.5676L17.3168 16.9474C17.1675 17.0955 16.9516 17.1539 16.7467 17.1063C14.7779 16.6487 12.7734 16.5324 10.8164 16.7357C9.99197 16.8214 9.17597 16.9638 8.37461 17.1613C7.7718 17.3099 7.28318 16.5787 7.72028 16.1378C8.3563 15.4962 9.02027 14.8892 9.7093 14.3174C12.5613 11.9505 15.8427 10.1874 19.3494 9.07865C20.6276 8.67449 21.9358 8.35726 23.264 8.12942L23.3553 8.10954C23.6286 8.90729 23.8201 9.74295 23.92 10.6065H23.8382Z" fill="white"/>
</svg>

<svg width="68" height="24" fill="none" xmlns="http://www.w3.org/2000/svg"><path d="M35.332 17h-6.698v-1.615l3.706-4.709h-3.706V8.789h6.63v1.564l-3.757 4.76h3.825V17zm2.865-9.095c-.352 0-.658-.125-.918-.374a1.285 1.285 0 0 1-.374-.918c0-.351.124-.652.374-.901.26-.25.566-.374.918-.374.362 0 .668.125.918.374.249.25.374.55.374.901s-.125.657-.374.918c-.25.25-.556.374-.918.374zM39.285 17h-2.16V8.789h2.16V17zm10.165 0h-2.704l-2.175-3.162-.986 1.054V17h-2.16V5.661h2.16v6.783l3.11-3.655h2.652L46.1 12.512 49.45 17zm4.832.204c-1.269 0-2.317-.397-3.144-1.19-.828-.793-1.241-1.836-1.241-3.128 0-1.213.396-2.233 1.19-3.06.804-.827 1.824-1.241 3.06-1.241 1.224 0 2.215.42 2.974 1.258.76.827 1.14 1.915 1.14 3.264v.476h-6.104c.069.544.312.997.732 1.36.419.363.963.544 1.631.544.363 0 .754-.074 1.173-.221.431-.147.771-.346 1.02-.595l.953 1.394c-.828.76-1.955 1.139-3.383 1.139zm1.888-5.083c-.035-.465-.221-.884-.562-1.258-.328-.374-.816-.561-1.461-.561-.612 0-1.088.187-1.428.561-.34.363-.539.782-.596 1.258h4.047zM67.317 17h-2.414l-1.87-2.771L61.146 17h-2.397l2.907-4.216-2.737-3.995h2.414l1.7 2.533 1.683-2.533h2.414l-2.754 3.995L67.317 17zM.905 16.253a32.742 32.742 0 0 1 7.88-7.64c.065-.045.026-.148-.053-.137-1.087.159-2.16.385-3.215.676-.317.087-.589-.255-.425-.54l.928-1.605a1.74 1.74 0 0 1 1.182-.85 29.12 29.12 0 0 1 9.819-.144c.609.095.65.936.072 1.15a31.5 31.5 0 0 0-2.614 1.104 30.538 30.538 0 0 0-9.9 7.49l-2.413 3.027-.04.039A11.97 11.97 0 0 1 .82 16.367l.086-.114zM23.838 10.607l-.157.026a26.58 26.58 0 0 0-9.198 3.42c-.063.037-.04.133.032.14 1.358.123 2.714.384 4.05.785.257.078.333.4.142.59l-1.39 1.38a.612.612 0 0 1-.57.158 17.984 17.984 0 0 0-8.372.055c-.603.149-1.092-.582-.655-1.023.636-.642 1.3-1.249 1.99-1.82a28.562 28.562 0 0 1 9.64-5.24 29.566 29.566 0 0 1 3.914-.949l.091-.02c.274.798.465 1.634.565 2.498h-.082z" fill="#fff"/></svg>
